archdroid-icon-theme/Archdroid-Grey/places/scalable/folder-templates.svg

<svg fill="#9E9E9E" height="48" viewBox="0 0 48 48" width="48" xmlns="http://www.w3.org/2000/svg"><path d="m16 4c-2.21 0-4 1.79-4 4v24c0 2.21 1.79 4 4 4h24c2.21 0 4-1.79 4-4v-24c0-2.21-1.79-4-4-4zm10.769531 4h2.460938l6.769531 18h-2.769531l-1.384766-3.857422h-7.691406l-1.384766 3.857422h-2.769531zm1.230469 3.425781-2.923828 8.146484h5.847656zm-10 16.574219h20v4h-20zm-14-16v28c0 2.21 1.79 4 4 4h28v-4h-28v-28z" fill="#9E9E9E"/></svg>

<svg fill="#9E9E9E" height="48" version="1.1" viewBox="0 0 48 48" width="48" xmlns="http://www.w3.org/2000/svg"><path d="m16 4c-2.21 0-4 1.79-4 4l0 24c0 2.21 1.79 4 4 4l24 0c2.21 0 4-1.79 4-4L44 8C44 5.79 42.21 4 40 4L16 4ZM26.769531 8L29.230469 8 36 26l-2.769531 0-1.384766-3.857422-7.691406 0L22.769531 26 20 26 26.769531 8ZM28 11.425781l-2.923828 8.146484 5.847656 0L28 11.425781ZM18 28l20 0 0 4-20 0 0-4zM4 12L4 40c0 2.21 1.79 4 4 4l28 0 0-4-28 0 0-28-4 0z"/></svg>
